X: 18816
T: Iitin Tiltu Polkka
R: polka
M: 2/4
K: Bminor
fb b/g/a/f/|ge eg|fg f/d/e/c/|dB B2|
fb b/g/a/f/|ge eg|fg f/d/e/c/|dB B/A/B/c/||
dd dc/d/|ee ed/e/|fg f/d/e/c/|dB B/A/B/c/|
dd dc/d/|ee ed/e/|fg f/d/e/c/|dB B2||
dB/d/ fd|cF FD|FA ce|dB B2|
dB/d/ fd|cF FD|FA ce|dB B2||

